static/images/team/paulina/tribal.svg

<svg xmlns="http://www.w3.org/2000/svg" width="114" height="116" fill="none" viewBox="0 0 114 116"><g clip-path="url(#clip0)"><path fill="#FCDCD9" d="M40.7201 90.1734C39.5301 94.0034 41.0201 94.8134 44.2801 94.7834C55.4301 94.6734 66.5801 94.7434 77.7301 94.9434C78.8501 94.9634 80.9701 95.7134 81.0601 97.0334C81.1501 98.4134 79.0301 99.5534 77.9201 99.6334C70.9501 100.163 63.9601 100.483 56.9801 100.623C51.1601 100.743 45.3301 100.473 39.5001 100.453C36.3201 100.443 34.7401 99.5934 34.8901 95.7934C35.1201 90.0034 34.5801 84.1834 34.2501 78.3834C34.0901 75.5034 35.1801 74.0134 38.1501 74.0034C50.8001 73.9534 63.4501 73.8034 76.1001 73.9134C77.8501 73.9334 81.2401 74.0834 81.3201 75.9534C81.4101 78.0534 77.6201 78.6434 75.7101 78.7334C64.9001 79.2534 54.0701 79.3834 43.2401 79.6534C42.2601 79.6734 41.2901 79.7934 40.0701 79.8934C40.0701 81.3734 40.0701 82.6234 40.0701 84.0634C40.7001 84.2334 41.3101 84.5534 41.9201 84.5534C51.9101 84.5234 61.9101 84.4334 71.9001 84.4034C74.2301 84.3934 76.6101 84.3134 78.8501 84.8234C80.0301 85.0934 82.1101 86.0834 81.9801 87.4634C81.8601 88.7934 79.7201 89.4334 78.5601 89.4634C67.7401 89.8234 56.9101 89.9734 46.0901 90.1634C44.2701 90.2034 42.4601 90.1734 40.7201 90.1734Z"/><path fill="#FCDCD9" d="M85.6501 74.3434C85.7401 72.7834 86.2401 69.8734 87.9601 69.7934C89.7701 69.7134 90.7201 72.7734 90.8201 74.3434C91.3801 83.3134 91.5501 92.3034 91.8501 101.283C91.9001 102.783 91.5101 104.443 92.0501 105.733C92.6401 107.163 93.5101 109.653 95.1301 109.483C96.6401 109.323 97.2101 106.833 97.2301 105.493C97.3401 95.6834 97.1801 85.8734 97.1201 76.0734C97.1101 75.0734 96.8401 73.9334 97.2301 73.1134C97.8001 71.9234 98.3501 69.8834 99.7001 69.9034C101.04 69.9134 101.98 71.9834 102.04 73.0934C102.55 82.0634 102.76 91.0434 103.18 100.023C103.29 102.293 103.67 104.573 104.26 106.773C104.49 107.643 105.31 109.133 106.33 109.023C107.38 108.913 107.94 107.223 107.94 106.323C107.91 95.6734 107.65 85.0234 107.68 74.3734C107.69 72.7634 107.84 69.7734 109.56 69.5334C111.39 69.2834 112.74 72.4034 112.81 73.9234C113.24 82.3934 113.2 90.8834 113.33 99.3734C113.36 101.373 113.34 103.373 113.52 105.353C114.15 112.233 109.64 115.993 103.01 114.313C101.5 113.923 99.6001 114.083 98.1301 114.653C92.1001 116.993 86.5601 113.393 86.4001 106.783C86.3301 103.953 86.4001 101.123 86.4001 98.2934C86.3901 95.4434 85.3601 79.4834 85.6501 74.3434Z"/><path fill="#FCDCD9" d="M51.67 60.1234C58.82 60.1234 65.69 60.1234 73.24 60.1234C68.56 56.1634 64.16 52.4734 59.8 48.7435C58.28 47.4435 56.66 46.2034 55.44 44.6535C54.9 43.9734 54.82 42.2234 55.32 41.6234C55.81 41.0434 57.73 40.7934 58.31 41.2734C65.76 47.3834 73.15 53.5734 80.35 59.9634C81.35 60.8534 82.01 63.2934 81.49 64.3834C81.04 65.3234 78.71 65.7335 77.2 65.7535C68.7 65.8535 60.2 65.7434 51.7 65.7634C48.11 65.7734 46.43 64.5835 46.29 60.5034C45.65 42.5334 44.61 24.5734 43.85 6.60345C43.8 5.32345 44.09 2.89345 45.51 2.68345C46.93 2.47345 48.09 4.78345 48.2 5.94345C49.03 14.3734 49.63 22.8334 50.16 31.2934C50.73 40.7334 51.15 50.1634 51.67 60.1234Z"/><path fill="#FCDCD9" d="M3.42996 88.9034C2.63996 83.9034 1.22996 80.3834 1.79996 77.2134C2.55996 72.9934 6.83996 72.2934 10.55 72.0434C14.69 71.7634 18.88 71.7034 23.02 71.9934C24.39 72.0934 26.99 72.8734 26.98 74.4434C26.97 76.1134 24.25 76.8134 22.75 77.0134C18.98 77.5134 15.11 77.2934 11.32 77.6934C9.91996 77.8434 7.60996 78.1234 7.25996 79.5834C6.86996 81.2434 9.10996 83.1734 10.39 83.4834C14.38 84.4434 18.59 84.4534 22.62 85.3034C24.58 85.7234 28.14 86.1134 28.14 88.2034C28.14 90.4234 24.32 90.9934 22.27 91.2534C19.19 91.6434 15.94 90.6134 12.84 90.9434C10.96 91.1434 7.84996 91.7134 7.42996 93.7134C6.97996 95.8334 9.76996 98.0734 11.48 98.6634C14.68 99.7534 18.29 99.6634 21.74 100.013C23.23 100.163 24.84 99.8534 26.19 100.343C27.24 100.723 28.66 102.043 28.63 102.903C28.6 103.823 27.01 105.523 26.21 105.463C19.99 104.963 13.34 105.303 7.70996 103.113C0.0799561 100.123 -0.590044 93.8934 3.42996 88.9034Z"/><path fill="#FCDCD9" d="M33.2501 5.24345C33.2201 3.77345 33.5001 0.923452 35.1201 0.783452C36.8201 0.633452 37.7701 3.57345 37.8701 5.04345C38.6501 16.8335 39.1401 28.6535 39.6801 40.4535C40.0301 48.1035 40.4601 55.7535 40.4901 63.4035C40.5001 65.0935 39.9901 68.4135 38.1001 68.4935C36.2201 68.5735 35.3501 65.2934 35.3201 63.6635C35.0701 52.5135 33.4401 13.5635 33.2501 5.24345Z"/><path fill="#FCDCD9" d="M17.5199 51.1334C20.5399 54.3034 23.3199 56.9134 25.6699 59.8634C26.5599 60.9734 27.9299 63.3634 26.7699 64.4434C25.5699 65.5734 23.3299 63.9334 22.0799 63.0134C19.1399 60.8634 16.5099 58.3034 13.6699 55.8534C10.7399 58.1634 8.14989 60.5534 5.19989 62.3534C4.03989 63.0734 1.39989 63.7734 0.459888 62.4734C-0.410112 61.2634 1.03989 59.3034 1.96989 58.3034C4.08989 56.0334 6.60989 54.1434 9.29989 51.8034C6.40989 49.0334 3.62989 46.6834 1.25989 43.9534C0.429888 43.0034 -0.560112 40.8334 0.379888 39.7134C1.34989 38.5634 3.82989 39.1534 4.81989 39.8734C7.61989 41.9234 10.0199 44.5034 12.9499 47.2134C15.5799 44.9534 18.0299 42.4634 20.8699 40.5834C22.3199 39.6234 25.0199 38.0034 26.3099 39.3634C27.6099 40.7334 25.8899 43.4534 24.7899 44.7434C22.7899 47.1234 20.1199 48.9234 17.5199 51.1334Z"/><path fill="#FCDCD9" d="M81.6601 48.6334C81.7001 49.8434 80.6001 50.9534 79.9601 51.0834C78.8501 51.3134 77.2001 51.2534 76.4501 50.5734C69.8101 44.6034 63.2501 38.5534 56.8601 32.3234C55.8601 31.3534 54.3501 29.0734 55.3801 27.8634C56.3201 26.7534 58.6601 27.7734 59.6401 28.5534C65.9601 33.6334 72.1401 38.9034 78.2601 44.2334C79.5801 45.3834 81.5901 46.6434 81.6601 48.6334Z"/><path fill="#FCDCD9" d="M57.0701 12.5834C57.9701 13.1334 58.7401 13.4834 59.3501 13.9934C65.6901 19.3034 72.0501 24.6034 78.3101 30.0134C79.4001 30.9634 80.3601 32.2734 80.8701 33.6134C81.1901 34.4634 80.8701 36.2534 80.2801 36.5734C79.3401 37.0834 77.4501 37.2534 76.7801 36.6434C69.7801 30.3534 62.8901 23.9334 56.1101 17.4134C55.3801 16.7034 55.2401 15.1534 55.2601 13.9934C55.2601 13.5334 56.4001 13.0834 57.0701 12.5834Z"/><path fill="#FCDCD9" d="M110.35 58.4734C112.53 58.6334 112.81 61.4834 112.69 62.4634C112.56 63.5134 111.51 65.3435 110.21 65.3535C108.76 65.3735 107.67 63.4034 107.37 62.1834C107.18 61.4434 108.06 58.3134 110.35 58.4734Z"/><path fill="#FCDCD9" d="M100.33 66.3634C98.1699 66.5634 97.1199 63.6234 97.2699 62.8434C97.4999 61.6434 98.5699 59.6834 99.9999 59.6434C101.31 59.6134 102.5 61.3934 102.63 62.4034C102.76 63.4134 102.4 66.1734 100.33 66.3634Z"/><path fill="#FCDCD9" d="M89.26 56.5134C87.04 56.3634 86.34 53.6934 86.62 52.3934C86.91 51.0734 88.86 50.5134 90.05 50.3934C90.73 50.3234 92.33 52.1134 92.18 52.7934C91.95 53.9434 91.43 56.6634 89.26 56.5134Z"/><path fill="#FCDCD9" d="M93.5799 62.5534C93.5499 64.8334 90.5299 65.3234 89.6499 65.1534C88.5299 64.9434 86.65 63.8434 86.66 62.4734C86.67 61.1034 88.5599 60.0334 89.6799 59.8434C90.5699 59.7034 93.61 60.2434 93.5799 62.5534Z"/><path fill="#FCDCD9" d="M104.05 52.3734C104.28 54.8434 100.94 55.2734 99.9001 55.2334C98.9101 55.1934 97.0301 53.9934 97.0401 52.6734C97.0501 51.4934 98.7201 50.4534 99.6301 50.3934C100.74 50.3134 103.84 50.0434 104.05 52.3734Z"/><path fill="#FCDCD9" d="M109.98 49.2234C111.94 49.1534 112.86 51.7434 112.7 52.3534C112.39 53.5134 111.17 55.1134 110.18 55.2134C109.27 55.3134 107.57 53.8234 107.35 52.7934C107.18 51.9834 107.96 49.3034 109.98 49.2234Z"/></g><defs><clipPath id="clip0"><rect width="113.56" height="114.57" y=".773" fill="#fff"/></clipPath></defs></svg>

<svg fill="none" height="116" width="114" xmlns="http://www.w3.org/2000/svg" xmlns:xlink="http://www.w3.org/1999/xlink"><clipPath id="a"><path d="m0 .773h113.56v114.57h-113.56z"/></clipPath><g clip-path="url(#a)" fill="#fcdcd9"><path d="m40.72 90.173c-1.19 3.83.3 4.64 3.56 4.61 11.15-.11 22.3-.04 33.45.16 1.12.02 3.24.77 3.33 2.09.09 1.38-2.03 2.52-3.14 2.6-6.97.53-13.96.85-20.94.99-5.82.12-11.65-.15-17.48-.17-3.18-.01-4.76-.86-4.61-4.66.23-5.79-.31-11.61-.64-17.41-.16-2.88.93-4.37 3.9-4.38 12.65-.05 25.3-.2 37.95-.09 1.75.02 5.14.17 5.22 2.04.09 2.1-3.7 2.69-5.61 2.78-10.81.52-21.64.65-32.47.92-.98.02-1.95.14-3.17.24v4.17c.63.17 1.24.49 1.85.49 9.99-.03 19.99-.12 29.98-.15 2.33-.01 4.71-.09 6.95.42 1.18.27 3.26 1.26 3.13 2.64-.12 1.33-2.26 1.97-3.42 2-10.82.36-21.65.51-32.47.7-1.82.04-3.63.01-5.37.01zm44.93-15.83c.09-1.56.59-4.47 2.31-4.55 1.81-.08 2.76 2.98 2.86 4.55.56 8.97.73 17.96 1.03 26.94.05 1.5-.34 3.16.2 4.45.59 1.43 1.46 3.92 3.08 3.75 1.51-.16 2.08-2.65 2.1-3.99.11-9.81-.05-19.62-.11-29.42-.01-1-.28-2.14.11-2.96.57-1.19 1.12-3.23 2.47-3.21 1.34.01 2.28 2.08 2.34 3.19.51 8.97.72 17.95 1.14 26.93.11 2.27.49 4.55 1.08 6.75.23.87 1.05 2.36 2.07 2.25 1.05-.11 1.61-1.8 1.61-2.7-.03-10.65-.29-21.3-.26-31.95.01-1.61.16-4.6 1.88-4.84 1.83-.25 3.18 2.87 3.25 4.39.43 8.47.39 16.96.52 25.45.03 2 .01 4 .19 5.98.63 6.88-3.88 10.64-10.51 8.96-1.51-.39-3.41-.23-4.88.34-6.03 2.34-11.57-1.26-11.73-7.87-.07-2.83 0-5.66 0-8.49-.01-2.85-1.04-18.81-.75-23.95zm-33.98-14.22h21.57c-4.68-3.96-9.08-7.65-13.44-11.38-1.52-1.3-3.14-2.54-4.36-4.09-.54-.68-.62-2.43-.12-3.03.49-.58 2.41-.83 2.99-.35 7.45 6.11 14.84 12.3 22.04 18.69 1 .89 1.66 3.33 1.14 4.42-.45.94-2.78 1.35-4.29 1.37-8.5.1-17-.01-25.5.01-3.59.01-5.27-1.18-5.41-5.26-.64-17.97-1.68-35.93-2.44-53.9-.05-1.28.24-3.71 1.66-3.92s2.58 2.1 2.69 3.26c.83 8.43 1.43 16.89 1.96 25.35.57 9.44.99 18.87 1.51 28.83zm-48.24 28.78c-.79-5-2.2-8.52-1.63-11.69.76-4.22 5.04-4.92 8.75-5.17 4.14-.28 8.33-.34 12.47-.05 1.37.1 3.97.88 3.96 2.45-.01 1.67-2.73 2.37-4.23 2.57-3.77.5-7.64.28-11.43.68-1.4.15-3.71.43-4.06 1.89-.39 1.66 1.85 3.59 3.13 3.9 3.99.96 8.2.97 12.23 1.82 1.96.42 5.52.81 5.52 2.9 0 2.22-3.82 2.79-5.87 3.05-3.08.39-6.33-.64-9.43-.31-1.88.2-4.99.77-5.41 2.77-.45 2.12 2.34 4.36 4.05 4.95 3.2 1.09 6.81 1 10.26 1.35 1.49.15 3.1-.16 4.45.33 1.05.38 2.47 1.7 2.44 2.56-.03.92-1.62 2.62-2.42 2.56-6.22-.5-12.87-.16-18.5-2.35-7.63-2.99-8.3-9.22-4.28-14.21zm29.82-83.66c-.03-1.47.25-4.32 1.87-4.46 1.7-.15 2.65 2.79 2.75 4.26.78 11.79 1.27 23.61 1.81 35.41.35 7.65.78 15.3.81 22.95.01 1.69-.5 5.01-2.39 5.09-1.88.08-2.75-3.2-2.78-4.83-.25-11.15-1.88-50.1-2.07-58.42zm-15.73 45.89c3.02 3.17 5.8 5.78 8.15 8.73.89 1.11 2.26 3.5 1.1 4.58-1.2 1.13-3.44-.51-4.69-1.43-2.94-2.15-5.57-4.71-8.41-7.16-2.93 2.31-5.52 4.7-8.47 6.5-1.16.72-3.8 1.42-4.74.12-.87-1.21.58-3.17 1.51-4.17 2.12-2.27 4.64-4.16 7.33-6.5-2.89-2.77-5.67-5.12-8.04-7.85-.83-.95-1.82-3.12-.88-4.24.97-1.15 3.45-.56 4.44.16 2.8 2.05 5.2 4.63 8.13 7.34 2.63-2.26 5.08-4.75 7.92-6.63 1.45-.96 4.15-2.58 5.44-1.22 1.3 1.37-.42 4.09-1.52 5.38-2 2.38-4.67 4.18-7.27 6.39z"/><path d="m81.66 48.633c.04 1.21-1.06 2.32-1.7 2.45-1.11.23-2.76.17-3.51-.51-6.64-5.97-13.2-12.02-19.59-18.25-1-.97-2.51-3.25-1.48-4.46.94-1.11 3.28-.09 4.26.69 6.32 5.08 12.5 10.35 18.62 15.68 1.32 1.15 3.33 2.41 3.4 4.4zm-24.59-36.05c.9.55 1.67.9 2.28 1.41 6.34 5.31 12.7 10.61 18.96 16.02 1.09.95 2.05 2.26 2.56 3.6.32.85 0 2.64-.59 2.96-.94.51-2.83.68-3.5.07-7-6.29-13.89-12.71-20.67-19.23-.73-.71-.87-2.26-.85-3.42 0-.46 1.14-.91 1.81-1.41zm53.28 45.89c2.18.16 2.46 3.01 2.34 3.99-.13 1.05-1.18 2.88-2.48 2.89-1.45.02-2.54-1.95-2.84-3.17-.19-.74.69-3.87 2.98-3.71zm-10.02 7.89c-2.16.2-3.21-2.74-3.06-3.52.23-1.2 1.3-3.16 2.73-3.2 1.31-.03 2.5 1.75 2.63 2.76s-.23 3.77-2.3 3.96zm-11.07-9.85c-2.22-.15-2.92-2.82-2.64-4.12.29-1.32 2.24-1.88 3.43-2 .68-.07 2.28 1.72 2.13 2.4-.23 1.15-.75 3.87-2.92 3.72zm4.32 6.04c-.03 2.28-3.05 2.77-3.93 2.6-1.12-.21-3-1.31-2.99-2.68s1.9-2.44 3.02-2.63c.89-.14 3.93.4 3.9 2.71zm10.47-10.18c.23 2.47-3.11 2.9-4.15 2.86-.99-.04-2.87-1.24-2.86-2.56.01-1.18 1.68-2.22 2.59-2.28 1.11-.08 4.21-.35 4.42 1.98zm5.93-3.15c1.96-.07 2.88 2.52 2.72 3.13-.31 1.16-1.53 2.76-2.52 2.86-.91.1-2.61-1.39-2.83-2.42-.17-.81.61-3.49 2.63-3.57z"/></g></svg>
